svg/u1f6b7.svg

<svg viewBox="0 0 128 128" xmlns="http://www.w3.org/2000/svg">
  <g>
    <path d="M64,4C30.86,4,4,30.86,4,64s26.86,60,60,60s60-26.86,60-60S97.14,4,64,4z M114,64 c0.04,11.53-3.96,22.71-11.3,31.6L32.4,25.3C41.29,17.96,52.47,13.96,64,14C91.61,14,114,36.39,114,64z M14,64 c-0.04-11.53,3.96-22.71,11.3-31.6l70.3,70.3c-8.89,7.34-20.07,11.34-31.6,11.3C36.39,114,14,91.61,14,64z" fill="#CC3333"/>
    <circle cx="60.1" cy="63.1" r="56.1" fill="#F44336"/>
    <path d="M95.6,102.7c-8.89,7.34-20.07,11.34-31.6,11.3c-27.61,0-50-22.39-50-50 c-0.04-11.53,3.96-22.71,11.3-31.6l7.1-7.1C41.29,17.96,52.47,13.96,64,14c27.61,0,50,22.39,50,50c0.04,11.53-3.96,22.71-11.3,31.6 " fill="#FFFFFF"/>
    <path d="M95.6,102.7c-8.89,7.34-20.07,11.34-31.6,11.3c-27.61,0-50-22.39-50-50 c-0.04-11.53,3.96-22.71,11.3-31.6l7.1-7.1C41.29,17.96,52.47,13.96,64,14c27.61,0,50,22.39,50,50c0.04,11.53-3.96,22.71-11.3,31.6 " fill="#231F20"/>
    <path d="M96.4,103.2c-20.49,16.74-50.66,13.7-67.4-6.79C14.59,78.78,14.59,53.44,29,35.8l6.8-6.8 c8.53-7.03,19.25-10.85,30.3-10.8c26.45,0,47.9,21.44,47.9,47.9c0,11.04-3.82,21.75-10.8,30.3" fill="#414042"/>
    <circle cx="63.9" cy="33.8" r="7.8" fill="#FAFAFA"/>
    <path d="M77.7,65.7c1.37,0.37,2.81-0.36,3.3-1.7l3.2-10.5c0.59-1.55-0.05-3.3-1.5-4.1c0,0-8.9-6.5-18.9-6.6 c-3.3,0-6.2,0.9-7.5,2.3c-1.1,1.2-5.5,9.5-7,12.3c-0.33,0.63-0.91,1.1-1.6,1.3l-9.6,2.7c-1.13,0.32-1.93,1.33-2,2.5 c-0.02,1.42,1.11,2.59,2.53,2.61c0.26,0,0.52-0.03,0.77-0.11L51.3,63l0,0c0.08-0.01,0.15-0.05,0.2-0.1c0,0,0.2,0,0.2-0.1 c0.1-0.12,0.24-0.2,0.4-0.2h0.1c0.31-0.23,0.55-0.54,0.7-0.9L56,55c0.3-0.6,0.9-0.7,0.9,0l-0.2,14.7c-0.01,0.54-0.19,1.06-0.5,1.5 l-7,8.5c-0.75,0.93-0.94,2.19-0.5,3.3l3.9,15.7c0.4,1.74,2.14,2.83,3.89,2.43c0.04-0.01,0.08-0.02,0.11-0.03 c1.77-0.43,2.86-2.21,2.43-3.98C59.02,97.08,59.01,97.04,59,97l-3.4-13.7c-0.11-0.49,0-1,0.3-1.4l6.5-8c0.23-0.32,0.61-0.5,1-0.5h1 c0.68-0.03,1.27,0.49,1.3,1.18c0,0.01,0,0.01,0,0.02c-0.01,2.82,0.26,5.63,0.8,8.4c0.18,0.63,0.45,1.24,0.8,1.8l10.9,15.7 c1,1.5,3.03,1.91,4.53,0.91c0.29-0.19,0.55-0.43,0.77-0.71c0.98-1.18,1.02-2.87,0.1-4.1l-10-14.5c-0.38-0.61-0.62-1.29-0.7-2 l-0.5-7.6l0,0V51.6c-0.01-0.35,0.27-0.65,0.62-0.66c0.09,0,0.19,0.02,0.28,0.06l4.9,2c0.31,0.13,0.49,0.47,0.4,0.8L76,62.4 c-0.46,1.35,0.26,2.81,1.61,3.27C77.64,65.68,77.67,65.69,77.7,65.7z" fill="#FAFAFA"/>
    <polyline points="23.4,35.6 95,102.1 97,100.2 30.6,33.4 " opacity="0.8" fill="#231F20" enable-background="new "/>
    <path d="M103.9,96.8L25.3,18.9L18.2,26l78.6,77.9" fill="#F44336"/>
    <path d="M45,10.9c1.7-0.4,4.2-1.6,5.9-1.1c1.09,0.3,1.75,1.4,1.5,2.5c-0.37,0.81-1.12,1.37-2,1.5 c-3.9,0.97-7.68,2.35-11.3,4.1c-7.18,3.78-13.38,9.19-18.1,15.8c-1.9,2.7-3.4,5.5-5.8,7.8c-0.21,0.23-0.49,0.37-0.8,0.4 c-0.17,0.03-0.35-0.01-0.5-0.1c-1.2-0.5-1.4-1.1-1.2-2.3c0.18-1.01,0.52-1.99,1-2.9c1.01-1.76,2.11-3.46,3.3-5.1 c1.89-2.91,4.11-5.59,6.6-8C30.4,17.2,39.2,12.4,45,10.9z" fill="#FF8A80"/>
    <polygon points="32.4,25.3 30.4,27.3 101.5,98.4 103.3,96.2 " fill="#CC3333"/>
  </g>
</svg>

<svg viewBox="0 0 128 128" xmlns="http://www.w3.org/2000/svg">
  <defs/>
  <path d="M64,4 C30.86,4 4,30.86 4,64 C4,97.14 30.86,124 64,124 C97.14,124 124,97.14 124,64 C124,30.86 97.14,4 64,4 Z M114,64 C114.04,75.53 110.04,86.71 102.7,95.6 L32.4,25.3 C41.29,17.96 52.47,13.96 64,14 C91.61,14 114,36.39 114,64 Z M14,64 C13.96,52.47 17.96,41.29 25.3,32.4 L95.6,102.7 C86.71,110.04 75.53,114.04 64,114 C36.39,114 14,91.61 14,64 Z" fill="#CC3333"/>
  <path d="M116.2,63.1 A56.1 56.1 0 1 1 4,63.1 A56.1 56.1 0 1 1 116.2,63.1 Z" fill="#F44336"/>
  <path d="M95.6,102.7 C86.71,110.04 75.53,114.04 64,114 C36.39,114 14,91.61 14,64 C13.96,52.47 17.96,41.29 25.3,32.4 L32.4,25.3 C41.29,17.96 52.47,13.96 64,14 C91.61,14 114,36.39 114,64 C114.04,75.53 110.04,86.71 102.7,95.6" fill="#FFFFFF"/>
  <path d="M95.6,102.7 C86.71,110.04 75.53,114.04 64,114 C36.39,114 14,91.61 14,64 C13.96,52.47 17.96,41.29 25.3,32.4 L32.4,25.3 C41.29,17.96 52.47,13.96 64,14 C91.61,14 114,36.39 114,64 C114.04,75.53 110.04,86.71 102.7,95.6" fill="#231F20"/>
  <path d="M96.4,103.2 C75.91,119.94 45.74,116.9 29,96.41 C14.59,78.78 14.59,53.44 29,35.8 L35.8,29 C44.33,21.97 55.05,18.15 66.1,18.2 C92.55,18.2 114,39.64 114,66.1 C114,77.14 110.18,87.85 103.2,96.4" fill="#414042"/>
  <path d="M71.7,33.8 A7.8 7.8 0 1 1 56.1,33.8 A7.8 7.8 0 1 1 71.7,33.8 Z" fill="#FAFAFA"/>
  <path d="M77.7,65.7 C79.07,66.07 80.51,65.34 81,64 L84.2,53.5 C84.79,51.95 84.15,50.2 82.7,49.4 C82.7,49.4 73.8,42.9 63.8,42.8 C60.5,42.8 57.6,43.7 56.3,45.1 C55.2,46.3 50.8,54.6 49.3,57.4 C48.97,58.03 48.39,58.5 47.7,58.7 L38.1,61.4 C36.97,61.72 36.17,62.73 36.1,63.9 C36.08,65.32 37.21,66.49 38.63,66.51 C38.89,66.51 39.15,66.48 39.4,66.4 L51.3,63 L51.3,63 C51.38,62.99 51.45,62.95 51.5,62.9 C51.5,62.9 51.7,62.9 51.7,62.8 C51.8,62.68 51.94,62.6 52.1,62.6 L52.2,62.6 C52.51,62.37 52.75,62.06 52.9,61.7 L56,55 C56.3,54.4 56.9,54.3 56.9,55 L56.7,69.7 C56.69,70.24 56.51,70.76 56.2,71.2 L49.2,79.7 C48.45,80.63 48.26,81.89 48.7,83 L52.6,98.7 C53,100.44 54.74,101.53 56.49,101.13 C56.53,101.12 56.57,101.11 56.6,101.1 C58.37,100.67 59.46,98.89 59.03,97.12 C59.02,97.08 59.01,97.04 59,97 L55.6,83.3 C55.49,82.81 55.6,82.3 55.9,81.9 L62.4,73.9 C62.63,73.58 63.01,73.4 63.4,73.4 L64.4,73.4 C65.08,73.37 65.67,73.89 65.7,74.58 C65.7,74.59 65.7,74.59 65.7,74.6 C65.69,77.42 65.96,80.23 66.5,83 C66.68,83.63 66.95,84.24 67.3,84.8 L78.2,100.5 C79.2,102 81.23,102.41 82.73,101.41 C83.02,101.22 83.28,100.98 83.5,100.7 C84.48,99.52 84.52,97.83 83.6,96.6 L73.6,82.1 C73.22,81.49 72.98,80.81 72.9,80.1 L72.4,72.5 L72.4,72.5 L72.4,51.6 C72.39,51.25 72.67,50.95 73.02,50.94 C73.11,50.94 73.21,50.96 73.3,51 L78.2,53 C78.51,53.13 78.69,53.47 78.6,53.8 L76,62.4 C75.54,63.75 76.26,65.21 77.61,65.67 C77.64,65.68 77.67,65.69 77.7,65.7 Z" fill="#FAFAFA"/>
  <path d="M23.4,35.6 L95,102.1 L97,100.2 L30.6,33.4" fill="#231F20" opacity="0.8"/>
  <path d="M103.9,96.8 L25.3,18.9 L18.2,26 L96.8,103.9" fill="#F44336"/>
  <path d="M45,10.9 C46.7,10.5 49.2,9.3 50.9,9.8 C51.99,10.1 52.65,11.2 52.4,12.3 C52.03,13.11 51.28,13.67 50.4,13.8 C46.5,14.77 42.72,16.15 39.1,17.9 C31.92,21.68 25.72,27.09 21,33.7 C19.1,36.4 17.6,39.2 15.2,41.5 C14.99,41.73 14.71,41.87 14.4,41.9 C14.23,41.93 14.05,41.89 13.9,41.8 C12.7,41.3 12.5,40.7 12.7,39.5 C12.88,38.49 13.22,37.51 13.7,36.6 C14.71,34.84 15.81,33.14 17,31.5 C18.89,28.59 21.11,25.91 23.6,23.5 C30.4,17.2 39.2,12.4 45,10.9 Z" fill="#FF8A80"/>
  <path d="M32.4,25.3 L30.4,27.3 L101.5,98.4 L103.3,96.2 Z" fill="#CC3333"/>
</svg>
